X:1912
T:Yoshke yoshke (Tanz, yidelekh, tanz)
Z:ABC-transkribering av Erik Ronström oktober 2010
M:2/4
L:1/16
K:Gm  % kompromiss, egentligen modulerar den väl från D-hijaz till Bb, men vafan
|:DE^FG ABAG|^F2FD G2G2|A2A2 cBAG|^F2FD G4|
DE^FG ABAG|^F2FD G2G2|^F2F2 EDEC|D8:|
|:Bcd2 d2d2|cdcA =F4|FGAB cdec|d8|
GAB2 B2B2|ABA^F D4|DE^FG ABFA|G8:|
|:D2^F2 D2F2|G2G2 cBAG|^F2F2 GFGB|A2d2 d2d2|
D2^F2 D2F2|G2G2 cBAG|^F2F2 EDEC|D8:|
(:musicend:)

Spelas ofta även i formen A B C B
(:music:)
